!!!!SEGMENT: pl-kk--kk-i-6--026-005_palestrina-giovanni-pierluigi-da--missa-marcelli-papae-agnus-dei.krn
!!!cenid: 16xx:993
!!!COM: Palestrina, Giovanni Pierluigi da
!!!COM-rismid: pe1904
!!!CDT: ~1525-1594/02/02
!!!CNT: Italian
!!!OPR: Missa Marcelli Papae
!!!OTL: Agnus Dei
!!!OMV: 005
!!!PDT:
!!!AGN: Sacred; Mass
!!!SMS-siglum: PL-Kk
!!!SMS-shelfmark: Kk.I.6
!!!SMS-shelfwork: 026-005 M
!!!SMS-variant:
!!!SMS-altvar:
!!!NIFC-rismid: 1001136041
!!!URL-scan: http://repozytorium.nifc.pl/skany/pl-kk-nut--i-6
!!!ONB-nifc: UWAGA: C (skan 0028-0032, s. 52-61), T (skan 0131-0136, s. 66-76), B (skan 0241-0246, s. 65-74) Części Mszy: 1. Kyrie, 2. Et in terra, 3. Patrem, 4. Sanctus, 5. Agnus Dei
**kern	**text	**kern	**text	**kern	**text
*part3	*part3	*part2	*part2	*part1	*part1
*staff3	*staff3	*staff2	*staff2	*staff1	*staff1
*Iempty	*	*Itenor	*	*Ivox	*
*I"Baſsus.	*	*I"Tenor.	*	*I"Cantus.	*
*I'B	*	*I'T	*	*I'S	*
*clefF4	*	*clefC3	*	*clefC4	*
*k[b-]	*	*k[b-]	*	*k[b-]	*
*F:	*	*F:	*	*F:	*
*M2/1	*	*M2/1	*	*M2/1	*
*met(C|)	*	*met(C|)	*	*met(C|)	*
=1-	=1-	=1-	=1-	=1-	=1-
00r	.	1rc	.	00r	.
.	.	0c	A-	.	.
=2-	=2-	=2-	=2-	=2-	=2-
.	.	.	.	.	.
.	.	1d	-Gnus	.	.
=3-	=3-	=3-	=3-	=3-	=3-
1rD	.	1B-	De-	0G	A-
0C	A-	0c	-i	.	.
=4-	=4-	=4-	=4-	=4-	=4-
.	.	.	.	1A	-Gnus
*	*	*	*ij	*	*
1D	-Gnus	1A	A-	1F	De-
=5-	=5-	=5-	=5-	=5-	=5-
*lig	*	*	*	*	*
1BB-	De-	2.B-/	-gnus	2G/	.
.	.	.	.	1F	.
.	.	4A/	.	.	.
1C	.	1G	De-	.	.
.	.	.	.	2E/	.
*Xlig	*	*	*	*	*
=6-	=6-	=6-	=6-	=6-	=6-
1FF	-i	2rA	.	1F	-i
.	.	1c	-i	.	.
*	*	*	*Xij	*	*
1F	A-	.	.	00r	.
.	.	2c/	A-	.	.
=7-	=7-	=7-	=7-	=7-	=7-
!LO:TX:a:t=P:problem:2\middle:global	!	!	!	!	!
2E\	-gnus	0c	-gnus	.	.
1F	De-	.	.	.	.
4E\	.	.	.	.	.
4D/	.	.	.	.	.
=8-	=8-	=8-	=8-	=8-	=8-
2E\	.	1c	De-	.	.
2F\	-i	.	.	.	.
!LO:SIC:v:t=custos F	!	!LO:SIC:v:t=custos c	!	!	!
1BB-	A-	1d	-i	1B-	A-
!LO:LB:g=original	!	!LO:LB:g=original	!	!	!
=9-	=9-	=9-	=9-	=9-	=9-
*	*	*	*ij	*	*
2F\	-gnus	2c/	A-	2A/	-gnus
4BB-/	De-	1d	.	1B-\	De-
4C/	.	.	.	.	.
4D/	.	.	.	.	.
!LO:TX:a:t=P:problem:4\middle:global	!	!	!	!	!
4E\	.	.	.	.	.
1F\	.	4c/	-gnus	4A/	.
!	!	!	!	!LO:SIC:v:t=custos A	!
.	.	4B-/	.	4G/	.
!	!	!	!	!LO:LB:g=original	!
=10-	=10-	=10-	=10-	=10-	=10-
.	.	2c/	De-	2A/	.
!	!	!LO:TX:a:t=P:problem:2\middle:global	!	!	!
2BB-/	-i	2d\	.	2B-\	.
1C	A-	1c	-i	00G	.
*	*	*	*Xij	*	*
=11-	=11-	=11-	=11-	=11-	=11-
2BB-/	-gnus	2r	.	.	.
1C	De-	1c	A-	.	.
.	.	.	.	.	.
4BB-/	.	1d\	-gnus	.	.
4AA/	.	.	.	.	.
=12-	=12-	=12-	=12-	=12-	=12-
2BB-/	.	.	.	.	.
2C/	.	2c/	De-	.	.
1FF	-i	1.c	-i	0A	-i
=13-	=13-	=13-	=13-	=13-	=13-
1F	Qui	.	.	.	.
.	.	1d	A-	.	.
1G	tol-	.	.	1B-	A-
.	.	2B-/	-gnus	.	.
=14-	=14-	=14-	=14-	=14-	=14-
1E	-lis	2.c/	De-	1G	-gnus
.	.	4B-/	.	.	.
1F	pec-	4A/	.	2A/	De-
.	.	4G/	.	.	.
.	.	2A/	.	2F/	.
=15-	=15-	=15-	=15-	=15-	=15-
!LO:SIC:v:t=custos D	!	!LO:SIC:v:t=custos c	!	!	!
1C	-ca-	2G/	-[i]	1G	.
!	!	!LO:LB:g=original	!	!	!
.	.	2c/	qui	.	.
!LO:LB:g=original	!	!	!	!	!
2D/	-ta	2A/	tol-	1F	-i
2BB-/	mun-	2d\	-lis	.	.
=16-	=16-	=16-	=16-	=16-	=16-
2C/	.	2c/	pec-	2rF	.
2D/	.	2A/	-ca-	2F/	qui
1C	.	1c	-ta	2G/	tol-
.	.	.	.	2E/	-lis
=17-	=17-	=17-	=17-	=17-	=17-
2FF/	-di	2r	.	2F/	pec-
2F\	Qui	2c/	Qui	2A/	-ca-
2G\	tol-	2B-/	tol-	2G/	-ta
!	!	!	!	!LO:TX:a:t=P:problem:2\middle:global	!
!	!	!	!	!LO:SIC:v:t=custos A	!
2E\	-lis	2G/	-lis	2c\	qui
!	!	!	!	!LO:LB:g=original	!
=18-	=18-	=18-	=18-	=18-	=18-
2F\	pec-	2c/	pec-	2A/	tol-
2D/	-ca-	2d\	-ca-	2B-\	-lis
1C	-ta	2e\	-ta	2G/	pec-
.	.	2c/	mun-	2.A/	-ca-
=19-	=19-	=19-	=19-	=19-	=19-
2BB-/	mun-	2d\	.	.	.
.	.	.	.	4G/	.
2FF/	.	2c/	.	1F/	.
1C	-di	1c	-di	.	.
.	.	.	.	2E/	-ta
=20-	=20-	=20-	=20-	=20-	=20-
2r	.	1r	.	1D	mun-
1F	Mi-	.	.	.	.
.	.	2r	.	1C	-di
2E\	-ſe-	1c\	mi-	.	.
=21-	=21-	=21-	=21-	=21-	=21-
!LO:SIC:v:t=custos C	!	!	!	!	!
1D	-re-	.	.	2rF	.
!	!	!LO:SIC:v:t=custos c	!	!	!
.	.	2B-/	-ſe-	2F/	Mi-
!LO:LB:g=original	!	!LO:PB:g=original	!	!	!
2C/	-re	1c	-re-	2G/	-se-
2AA/	no-	.	.	2A/	-re-
=22-	=22-	=22-	=22-	=22-	=22-
1BB-	.	1.F	-re	2D/	-re
.	.	.	.	1B-\	no-
1FF	-bis	.	.	.	.
.	.	1c\	Mi-	2A/	.
=23-	=23-	=23-	=23-	=23-	=23-
1rD	.	.	.	1G	.
.	.	2B-/	-ſe-	.	.
2rC	.	1A	-re-	1.F	-bis
1F\	Mi-	.	.	.	.
=24-	=24-	=24-	=24-	=24-	=24-
.	.	1G	-re	.	.
2E\	-ſe-	.	.	1c\	Mi-
1D	-re-	2A/	no-	.	.
.	.	2F/	.	2B-\	-se-
!	!	!	!	!LO:LB:g=original	!
=25-	=25-	=25-	=25-	=25-	=25-
1C	-re	0c	.	2A/	-re-
.	.	.	.	2G/	-re
1FF	no-	.	.	1A	no-
=26-	=26-	=26-	=26-	=26-	=26-
0C;;l	-bis.	0c;;l	-bis.	0G;;l	-bis.
.	.	.	.	.	.
=-	=-	=-	=-	=-	=-
*-	*-	*-	*-	*-	*-
!!!system-decoration: [(s1,s2,s3)]
!!!RDF**kern: l = terminal long
!!!RDF**kern: > = above
!!!RDF**kern: < = below
!!!EED: Antoni Szymański
!!!EST: 2021-03-22
!!!AIN: 1 empty 1 tenor 1 vox
!!!ENC: Berenika Jozajtis
!!!END: 2021-03-08
